img/pages/web-literacy/21cskills/21c-skill-icon_problem-solving.svg

<svg id="Layer_1" data-name="Layer 1" xmlns="http://www.w3.org/2000/svg" viewBox="0 0 70 78"><defs><style>.cls-1{fill:#f89c24}</style></defs><title>MLN_Web-Literacy_Icons</title><path class="cls-1" d="M69.5 0H.5a.5.5 0 0 0-.5.5V67a.5.5 0 0 0 .5.5h29.07V72a5.43 5.43 0 0 0 10.86 0v-4.46H69.5A.5.5 0 0 0 70 67V.5a.5.5 0 0 0-.5-.5zM1 1h18.72v8.86H1V1zm28.57 48.28v1.24H7.16V32.73h11.9c0 .49-.08 1-.08 1.49a16 16 0 0 0 10.59 15.05zM35 19.2a15 15 0 1 1-15 15 15 15 0 0 1 15-15zM7.16 28.34V17h55.68v11.34H49.89a16 16 0 0 0-29.78 0H7.16zM39.43 51v21a4.43 4.43 0 0 1-8.86 0V49.6a15.78 15.78 0 0 0 8.86 0V51zm1-1.75A16 16 0 0 0 51 34.22c0-.5 0-1-.08-1.49h11.9v17.79H40.43v-1.24zM69 66.54H40.43v-15h22.91a.5.5 0 0 0 .5-.5V32.23a.5.5 0 0 0-.5-.5H50.81a15.93 15.93 0 0 0-.55-2.39h13.08a.5.5 0 0 0 .5-.5V16.52a.5.5 0 0 0-.5-.5H6.66a.5.5 0 0 0-.5.5v12.32a.5.5 0 0 0 .5.5h13.08a15.93 15.93 0 0 0-.55 2.39H6.66a.5.5 0 0 0-.5.5V51a.5.5 0 0 0 .5.5h22.91v15H1V10.86h68v55.68zm0-56.68H20.72V1H69v8.86z"/><path class="cls-1" d="M6.59 4.93H4.27a.5.5 0 0 0 0 1h2.32a.5.5 0 0 0 0-1zM11.52 4.93H9.2a.5.5 0 0 0 0 1h2.32a.5.5 0 0 0 0-1zM16.45 4.93h-2.32a.5.5 0 0 0 0 1h2.32a.5.5 0 0 0 0-1zM23.91 5.93h41.9a.5.5 0 0 0 0-1h-41.9a.5.5 0 0 0 0 1zM63.34 59.15H43.63a.5.5 0 0 0 0 1h19.71a.5.5 0 0 0 0-1zM63.34 54.22H43.63a.5.5 0 0 0 0 1h19.71a.5.5 0 0 0 0-1zM6.66 60.15h19.72a.5.5 0 0 0 0-1H6.66a.5.5 0 0 0 0 1zM6.66 55.22h19.72a.5.5 0 0 0 0-1H6.66a.5.5 0 0 0 0 1zM34.5 68.34v2.32a.5.5 0 0 0 1 0v-2.32a.5.5 0 0 0-1 0zM32.18 39.5a.5.5 0 0 0 .71 0l9.86-9.86a.5.5 0 0 0-.75-.71l-9.5 9.5-4.5-4.57a.5.5 0 0 0-.71.71z"/></svg>

<svg id="Layer_1" data-name="Layer 1" xmlns="http://www.w3.org/2000/svg" viewBox="0 0 70 78"><defs><style>.cls-1{fill:#f89c24;}</style></defs><title>MLN_Web-Literacy_Icons</title><path class="cls-1" d="M69.5,0H0.5A0.5,0.5,0,0,0,0,.5V67a0.5,0.5,0,0,0,.5.5H29.57V72a5.43,5.43,0,0,0,10.86,0V67.54H69.5A0.5,0.5,0,0,0,70,67V0.5A0.5,0.5,0,0,0,69.5,0ZM1,1H19.72V9.86H1V1ZM29.57,49.28v1.24H7.16V32.73h11.9c0,0.49-.08,1-0.08,1.49A16,16,0,0,0,29.57,49.27h0ZM35,19.2a15,15,0,1,1-15,15A15,15,0,0,1,35,19.2ZM7.16,28.34V17H62.84V28.34H49.89a16,16,0,0,0-29.78,0H7.16ZM39.43,51h0V72a4.43,4.43,0,0,1-8.86,0V49.6a15.78,15.78,0,0,0,8.86,0V51Zm1-1.75A16,16,0,0,0,51,34.22c0-.5,0-1-0.08-1.49h11.9V50.52H40.43V49.28h0ZM69,66.54H40.43v-15H63.34a0.5,0.5,0,0,0,.5-0.5V32.23a0.5,0.5,0,0,0-.5-0.5H50.81a15.93,15.93,0,0,0-.55-2.39H63.34a0.5,0.5,0,0,0,.5-0.5V16.52a0.5,0.5,0,0,0-.5-0.5H6.66a0.5,0.5,0,0,0-.5.5V28.84a0.5,0.5,0,0,0,.5.5H19.74a15.93,15.93,0,0,0-.55,2.39H6.66a0.5,0.5,0,0,0-.5.5V51a0.5,0.5,0,0,0,.5.5H29.57v15H1V10.86H69V66.54ZM69,9.86H20.72V1H69V9.86Z"/><path class="cls-1" d="M6.59,4.93H4.27a0.5,0.5,0,0,0,0,1H6.59A0.5,0.5,0,0,0,6.59,4.93Z"/><path class="cls-1" d="M11.52,4.93H9.2a0.5,0.5,0,0,0,0,1h2.32A0.5,0.5,0,0,0,11.52,4.93Z"/><path class="cls-1" d="M16.45,4.93H14.13a0.5,0.5,0,0,0,0,1h2.32A0.5,0.5,0,0,0,16.45,4.93Z"/><path class="cls-1" d="M23.91,5.93H65.81a0.5,0.5,0,0,0,0-1H23.91A0.5,0.5,0,0,0,23.91,5.93Z"/><path class="cls-1" d="M63.34,59.15H43.63a0.5,0.5,0,0,0,0,1H63.34A0.5,0.5,0,0,0,63.34,59.15Z"/><path class="cls-1" d="M63.34,54.22H43.63a0.5,0.5,0,0,0,0,1H63.34A0.5,0.5,0,0,0,63.34,54.22Z"/><path class="cls-1" d="M6.66,60.15H26.38a0.5,0.5,0,0,0,0-1H6.66A0.5,0.5,0,0,0,6.66,60.15Z"/><path class="cls-1" d="M6.66,55.22H26.38a0.5,0.5,0,0,0,0-1H6.66A0.5,0.5,0,0,0,6.66,55.22Z"/><path class="cls-1" d="M34.5,68.34v2.32a0.5,0.5,0,0,0,1,0V68.34A0.5,0.5,0,0,0,34.5,68.34Z"/><path class="cls-1" d="M32.18,39.5a0.5,0.5,0,0,0,.71,0l9.86-9.86A0.5,0.5,0,0,0,42,28.93l-9.5,9.5L28,33.86a0.5,0.5,0,0,0-.71.71Z"/></svg>
